X: 978
T: Hatırla Ey Peri
C: Muhlis Sabahaddin Ezgi
O: Turkey
F: http://compmusic.upf.edu/node/140
N: nihavent--sarki--semai--hatirla_ey_peri--muhlis_sabahaddin_ezgi
N: makam= nihavent
N: form= sarki
N: usul= semai = 3/4
M: 3/4
L: 1/16
K: C _B _e  
Q: 1/4=162
%%MIDI tuningsystem comma53
G4 B4 d4  | c8 B4  | d12  | d8 z4  | G4 B4 d4  | \
w:  ARANAĞME  |   |   |   |   | 
c8 B4  | A12  | A8 z4  | A4 B4 c4  | B4 A8  | 
w:   |   |   |   |   | 
c12  | e12  | d4 c4 B4  | c4 B4 A4  | G12  | G8 z4  | \
w:   |   |   |   |   |   | 
G4 B4 d4  | c8 B4  | d12  | d8 z4  | G4 B4 d4  | 
w:  ARANAĞME  |   |   |   |   | 
c8 B4  | A12  | A8 z4  | A4 B4 c4  | B4 A8  | c12  | e12  | \
w:   |   |   |   |   |   |   | 
d4 c4 B4  | c4 B4 A4  | G12  | G8 z4  | 
w:   |   |   |   | 
G4 B4 d4  | c8 B4  | d12  | d8 z4  | G4 B4 d4  | \
w:  Ha tır la   |  ey  pe  |  ri   |   |  o  me sut   | 
c8 B4  | A12  | A8 z4  | A4 B4 c4  | B8 A4  | 
w:  ge ce  |  yi    |   |  Çam la rın_  |  al tın  | 
c12  | e12  | d4 A4 B4  | c4 B4 A4  | G12  | G8 z4  | \
w:  da   |   |  çal dı ğım   |  bû *  se  |  yi    |   | 
G4 B4 d4  | c8 B4  | d12  | d8 z4  | G4 B4 d4  | 
w:  Ha tır la   |  ey  pe  |  ri   |   |  o  me sut   | 
c8 B4  | A12  | A8 z4  | A4 B4 c4  | B8 A4  | c12  | e12  | \
w:  ge ce  |  yi    |   |  Çam la rın_  |  al tın  |  da   |   | 
d4 A4 B4  | c4 B4 A4  | G12  | G8 z4  | 
w:  çal dı ğım   |  bû *  se  |  yi    |   | 
^f4 g4 a4  | ^f6e2 e2d2  | d12  | d8 z4  | \
w:  Be ni  Mec  |  nûn_ *  et  |  tin   |   | 
e8 e4  | d4 c4 B4  | d12  | d8 z4  | e8 e4  | \
w:  sen  de   |  o *  la  |  sın    |   |  Aş kı  | 
d4 c4 B4  | 
w:  mı  *  in  | 
d8 c4  | B4 A4 G4  | A4 B4 c4  | B8 A4  | G12  | \
w:  kâr_ e  |  der *  sen   |  Al lah tan   |  bu la  |  sın    | 
G8 z4  | ^f4 g4 a4  | ^f6e2 e2d2  | d12  | 
w:   |  Be ni  Mec  |  nûn_ *  et  |  tin   | 
d8 z4  | e8 e4  | d4 c4 B4  | d12  | d8 z4  | \
w:   |  sen  de   |  o *  la  |  sın    |   | 
e8 e4  | d4 c4 B4  | d8 c4  | B4 A4 G4  | A4 B4 c4  | 
w:  Aş kı  |  mı  *  in  |  kâr_ e  |  der *  sen   |  Al lah tan   | 
B8 A4  | G12  | G8 z4  | |


